X:012
T:March by Dobney TS.012
M:C
L:1/8
Q:1/4=120
S:Thomas Sands’ MS,1810,Lincolnshire
R:march
C:Dobney
C:”a favorite Scotch Air”
O:England;Lincolnshire
Z:vmp.Ruairidh Greig, 2011
K:D
(A/B/c/)|d2 (d>d)d3(c/d/)|e2e>ee3(f/g/)|f>fd>d e>ec>c|d2d>dd2f>g|
a3g b>ag>f|g2e>ee2e>f|g3e gfed|f2d>dd2A2|
B2(gf) fe dc|c2″sic”c>cc2::(c>d)|e2(e>e)e2(d>e)|f2d>dd2(e>f)|
g2f2e2d2|e2(e>e)e2f>g|a>af>f g>ge>e|f>fd>de2(f>g)|
a>af>f g>ge>e|f>fd>de2f>g|f>ef>gf2e2|d2d>dd2:|]

